rospo-icon-theme-classic-common/22x22/apps/distributor-logo-archlinux.svg

<svg height="22" width="22" xmlns="http://www.w3.org/2000/svg"><g fill-rule="evenodd"><path d="m10.998278 1.5005c-.890381 2.1824727-1.42739 3.610055-2.4186906 5.7274285.6077736.644142 1.3538246 1.3942325 2.5654206 2.2414225-1.302565-.535894-2.1910456-1.073887-2.8550296-1.63218-1.268657 2.646767-3.25636 6.41692-7.2899783 13.662829 3.1702933-1.829827 4.8777707-2.957963 7.1682352-3.388458-.09835-.422895-.1542715-.880339-.1504705-1.357633l.0035-.101549c.050301-2.030674 1.2379632-4.15236 3.1083492-4.15236s2.924642 2.505281 2.874331 4.535956c-.0094.382145-.05258.74969-.127891 1.090636 2.26546.443094 3.996562 1.56833 7.123946 3.373408-.616676-1.135036-1.167087-2.158223-1.692693-3.132711-.827968-.641592-1.691543-1.476582-3.453101-2.38057 1.210795.314546 2.077721.677442 2.753459 1.083086-5.344083-9.9478755-5.776671-11.2698585-7.609543-15.569805z" opacity=".2"/><path d="m10.998278 1.0005c-.890381 2.1824727-1.42739 3.610055-2.4186906 5.7274285.6077736.644142 1.3538246 1.3942325 2.5654206 2.241422-1.302565-.5358935-2.1910456-1.0738865-2.8550296-1.6321795-1.268657 2.646767-3.25636 6.41692-7.2899783 13.662829 3.1702933-1.829827 4.8777707-2.957963 7.1682352-3.388458-.09835-.422895-.1542715-.880339-.1504705-1.357633l.0035-.101549c.050301-2.030674 1.2379632-4.15236 3.1083492-4.15236s2.924642 2.505281 2.874331 4.535956c-.0094.382145-.05258.74969-.127891 1.090636 2.26546.443094 3.996562 1.56833 7.123946 3.373408-.616676-1.135036-1.167087-2.158223-1.692693-3.132711-.827968-.641592-1.691543-1.476582-3.453101-2.38057 1.210795.314546 2.077721.677442 2.753459 1.083086-5.344083-9.9478755-5.776671-11.2698585-7.609543-15.569805z" fill="#1793d1"/><path d="m10.998047 1c-.890381 2.1824727-1.426668 3.6111421-2.4179689 5.7285156.0437758.0463952.107011.1028995.1523438.1503906.8807861-1.9127023 1.4299891-3.3306241 2.2656251-5.3789062 1.779421 4.1745495 2.322942 5.6882685 7.238281 14.867188.127032.06662.255925.133989.371094.203124-5.344083-9.947875-5.776503-11.2703655-7.609375-15.570312zm-2.7089845 6.3378906c-1.268657 2.6467674-3.2554442 6.4162004-7.2890625 13.6621094.1486217-.085781.2579878-.149724.4003906-.232422 3.695748-6.655252 5.6743007-10.396176 6.8886719-12.9296874.663984.558293 1.5529035 1.0949654 2.8554685 1.6308594-.640143-.447611-1.139862-.8618116-1.568359-1.2539062-.509004-.2883196-.9337974-.5798803-1.2871095-.8769532zm7.5644535 8.6484374c1.761558.903988 2.625157 1.739268 3.453125 2.38086.403327.747779.847555 1.570632 1.298828 2.404296.140007.081246.248643.144312.394531.228516-.616676-1.135036-1.167753-2.158324-1.693359-3.132812-.469969-.364179-.97047-.79567-1.621094-1.261719-.512124-.222525-1.104997-.430268-1.832031-.619141zm-7.8203129.546875c-.00185.03978-.010735.07942-.011719.119141l-.00391.101562c-.00241.303129.027025.593603.068359.876953.027951-.0055.053908-.01425.082031-.01953-.078705-.338421-.1192663-.702986-.1347657-1.078125zm5.9570309.191406c-.01724.313406-.05065.618825-.113281.902344.02742.0054.05281.01397.08008.01953.02501-.19802.04174-.402646.04687-.611328.0025-.101412-.01071-.207139-.01367-.310547z" fill="#fff" opacity=".2"/></g></svg>

<svg xmlns="http://www.w3.org/2000/svg" width="22" height="22" version="1.1">
 <path style="opacity:0.2;fill-rule:evenodd" d="M 10.998278,1.5005 C 10.107897,3.6829727 9.570888,5.110555 8.5795874,7.2279285 9.187361,7.8720705 9.933412,8.622161 11.145008,9.469351 9.842443,8.933457 8.9539624,8.395464 8.2899784,7.837171 7.0213214,10.483938 5.0336184,14.254091 1.0000001,21.5 4.1702934,19.670173 5.8777708,18.542037 8.1682353,18.111542 8.0698853,17.688647 8.0139638,17.231203 8.0177648,16.753909 l 0.0035,-0.101549 C 8.0715658,14.621686 9.259228,12.5 11.129614,12.5 c 1.870386,0 2.924642,2.505281 2.874331,4.535956 -0.0094,0.382145 -0.05258,0.74969 -0.127891,1.090636 2.26546,0.443094 3.996562,1.56833 7.123946,3.373408 -0.616676,-1.135036 -1.167087,-2.158223 -1.692693,-3.132711 -0.827968,-0.641592 -1.691543,-1.476582 -3.453101,-2.38057 1.210795,0.314546 2.077721,0.677442 2.753459,1.083086 C 13.263582,7.1219295 12.830994,5.7999465 10.998122,1.5 Z"/>
 <path d="M 10.998278,1.0005 C 10.107897,3.1829727 9.570888,4.610555 8.5795874,6.7279285 9.187361,7.3720705 9.933412,8.122161 11.145008,8.9693505 9.842443,8.433457 8.9539624,7.895464 8.2899784,7.337171 7.0213214,9.983938 5.0336184,13.754091 1.0000001,21 4.1702934,19.170173 5.8777708,18.042037 8.1682353,17.611542 8.0698853,17.188647 8.0139638,16.731203 8.0177648,16.253909 l 0.0035,-0.101549 C 8.0715658,14.121686 9.259228,12 11.129614,12 13,12 14.054256,14.505281 14.003945,16.535956 c -0.0094,0.382145 -0.05258,0.74969 -0.127891,1.090636 C 16.141514,18.069686 17.872616,19.194922 21,21 c -0.616676,-1.135036 -1.167087,-2.158223 -1.692693,-3.132711 -0.827968,-0.641592 -1.691543,-1.476582 -3.453101,-2.38057 1.210795,0.314546 2.077721,0.677442 2.753459,1.083086 C 13.263582,6.6219295 12.830994,5.2999465 10.998122,1 Z" style="fill:#1793d1;fill-rule:evenodd"/>
 <path style="opacity:0.2;fill:#ffffff;fill-rule:evenodd" d="M 10.998047,1 C 10.107666,3.1824727 9.571379,4.6111421 8.5800781,6.7285156 8.6238539,6.7749108 8.6870891,6.8314151 8.7324219,6.8789062 9.613208,4.9662039 10.162411,3.5482821 10.998047,1.5 c 1.779421,4.1745495 2.322942,5.6882685 7.238281,14.867188 0.127032,0.06662 0.255925,0.133989 0.371094,0.203124 C 13.263339,6.622437 12.830919,5.2999465 10.998047,1 Z M 8.2890625,7.3378906 C 7.0204055,9.984658 5.0336183,13.754091 1,21 1.1486217,20.914219 1.2579878,20.850276 1.4003906,20.767578 5.0961386,14.112326 7.0746913,10.371402 8.2890625,7.8378906 8.9530465,8.3961836 9.841966,8.932856 11.144531,9.46875 10.504388,9.021139 10.004669,8.6069384 9.576172,8.2148438 9.067168,7.9265242 8.6423746,7.6349635 8.2890625,7.3378906 Z m 7.5644535,8.6484374 c 1.761558,0.903988 2.625157,1.739268 3.453125,2.38086 0.403327,0.747779 0.847555,1.570632 1.298828,2.404296 C 20.745476,20.85273 20.854112,20.915796 21,21 20.383324,19.864964 19.832247,18.841676 19.306641,17.867188 18.836672,17.503009 18.336171,17.071518 17.685547,16.605469 17.173423,16.382944 16.58055,16.175201 15.853516,15.986328 Z m -7.8203129,0.546875 c -0.00185,0.03978 -0.010735,0.07942 -0.011719,0.119141 l -0.00391,0.101562 c -0.00241,0.303129 0.027025,0.593603 0.068359,0.876953 0.027951,-0.0055 0.053908,-0.01425 0.082031,-0.01953 -0.078705,-0.338421 -0.1192663,-0.702986 -0.1347657,-1.078125 z m 5.9570309,0.191406 c -0.01724,0.313406 -0.05065,0.618825 -0.113281,0.902344 0.02742,0.0054 0.05281,0.01397 0.08008,0.01953 0.02501,-0.19802 0.04174,-0.402646 0.04687,-0.611328 0.0025,-0.101412 -0.01071,-0.207139 -0.01367,-0.310547 z"/>
</svg>
